X: 15016
T: George Christie Of Fochabers
R: waltz
M: 3/4
K: Gmajor
D G>A|AB- B3 d|AB- B2 GA/B/|c>B A>G E>D|C4
C>B,|A,G- G2 G>A|EF- FD E>D|G3 A- AB/c/|A3
D G>A|AB- B3 d|AB- B2 GA/B/|c>B A>G E>D|C4
C>B,|A,G- G2 G>A|EF- FD E>D|G3 A B>A|G3:|
A B>A|B>g g>B g>B|c>g g>c g>c|A3 D A>B|A3
A B>A|B>g g>B g>B|c>g g>c g>c|A3 D A>B|A3
G G>F|G e2- e2 G|F d2- d2 F|E c2- c2 E|D B2- B2
D|C A2- A2 B|EF- FD E>D|G3 A B>A|G3:|

